Papirus/32x32/apps/com.github.GradienceTeam.Gradience.svg

<svg width="32" height="32" version="1.1" xmlns="http://www.w3.org/2000/svg">
 <rect x="3" y="6" width="26" height="22" rx="3" ry="3" style="opacity:.2"/>
 <rect x="2.9921875" y="5" width="26" height="22" rx="3" ry="3" style="fill:#e4e4e4"/>
 <rect x="2" y="12" width="18" height="7" ry="1" style="opacity:.1"/>
 <path d="m19 5h7c1.639549 0 3 1.350438 3 3v3h-10z" style="opacity:.1"/>
 <path d="m20.5 15.5h1v6h-10v1" style="fill:none;opacity:.1;stroke-linecap:square;stroke-linejoin:round;stroke-miterlimit:0;stroke:#000000"/>
 <path d="m20.5 14.5h1v6h-10v1" style="fill:none;stroke-linecap:square;stroke-linejoin:round;stroke-miterlimit:0;stroke:#afafb1"/>
 <rect x="10" y="23" width="3" height="8" ry="1" style="opacity:.2"/>
 <rect x="10" y="22" width="3" height="8" ry="1" style="fill:#4f4f4f"/>
 <circle cx="11.5" cy="28.5" r=".5" style="opacity:.2"/>
 <path d="m6 5h1v6h-4v-3c0-1.6850204 1.3398361-3 3-3z" style="fill:#50beee"/>
 <rect x="7" y="5" width="4" height="6" style="fill:#79de7d"/>
 <rect x="11" y="5" width="4" height="6" style="fill:#fed65c"/>
 <rect x="15" y="5" width="4" height="6" style="fill:#df574d"/>
 <g transform="translate(0,6)">
  <path d="m2 6c0-0.497707 0.4993742-1 1-1h4v7h-4c-0.4999071 0-1-0.502786-1-1z" style="fill:#2aa0ea"/>
  <rect x="7" y="5" width="4" height="7" style="fill:#4ec353"/>
  <rect x="11" y="5" width="4" height="7" style="fill:#fecd38"/>
  <path d="m15 5h4c0.501614 0 1 0.5027867 1 1v5c0 0.502107-0.500587 1-1 1h-4z" style="fill:#e14134"/>
 </g>
 <path d="m2 12c0-0.500514 0.4960742-1 1-1h16c0.502713 0 1 0.501687 1 1v1c0-0.503319-0.501193-1-1-1h-16c-0.5006258 0-1 0.498274-1 1z" style="fill:#fffefe;opacity:.2"/>
 <path d="m3 8v1c0-1.6712293 1.3220595-3 3-3h20c1.670861 0 3 1.3220595 3 3v-1c0-1.6708606-1.343299-3-3-3h-20c-1.6779405 0-3 1.3115164-3 3z" style="fill:#fffefe;opacity:.2"/>
 <path d="m10 23c0-0.555695 0.443269-1 1-1h1c0.556731 0 1 0.439817 1 1v1c0-0.556212-0.437745-1-1-1h-1c-0.55138 0-1 0.436709-1 1z" style="fill:#fffefe;opacity:.2"/>
 <circle cx="25.5" cy="8.5" r="1.5" style="opacity:.2"/>
</svg>

<svg xmlns="http://www.w3.org/2000/svg" width="32" height="32" version="1.1">
 <rect style="opacity:0.2" width="26" height="22" x="3" y="6" rx="3" ry="3"/>
 <rect style="fill:#e4e4e4" width="26" height="22" x="3" y="5" rx="3" ry="3"/>
 <rect style="opacity:0.1" width="18" height="7" x="2" y="12" ry="1"/>
 <path style="opacity:0.1" d="m19 5h7c1.639549 0 3 1.350438 3 3v3h-10z"/>
 <path style="opacity:0.1;fill:none;stroke:#000000;stroke-linecap:square;stroke-linejoin:round" d="M 20.5,15.5 H 21.5 V 21.5 H 11.5"/>
 <path style="fill:none;stroke:#afafb1;stroke-linecap:square;stroke-linejoin:round" d="M 19.5,14.5 H 21.5 V 20.5 H 11.5 V 21.5"/>
 <rect style="opacity:0.2" width="3" height="8" x="10" y="23" ry="1"/>
 <rect style="fill:#4f4f4f" width="3" height="8" x="10" y="22" ry="1"/>
 <circle style="opacity:0.2" cx="11.5" cy="28.5" r=".5"/>
 <path style="fill:#50beee" d="M 6,5 H 7 V 12 H 3 V 8 C 3,6.315 4.3398,5 6,5 Z"/>
 <rect style="fill:#79de7d" width="4" height="7" x="7" y="5"/>
 <rect style="fill:#fed65c" width="4" height="7" x="11" y="5"/>
 <rect style="fill:#df574d" width="4" height="7" x="15" y="5"/>
 <g transform="translate(0,6)">
  <path style="fill:#2aa0ea" d="m2 6c0-0.497707 0.4993742-1 1-1h4v7h-4c-0.4999071 0-1-0.502786-1-1z"/>
  <rect style="fill:#4ec353" width="4" height="7" x="7" y="5"/>
  <rect style="fill:#fecd38" width="4" height="7" x="11" y="5"/>
  <path style="fill:#e14134" d="m15 5h4c0.501614 0 1 0.5027867 1 1v5c0 0.502107-0.500587 1-1 1h-4z"/>
 </g>
 <path style="fill:#fffefe;opacity:0.2" d="m2 12c0-0.500514 0.4960742-1 1-1h16c0.502713 0 1 0.501687 1 1v1c0-0.503319-0.501193-1-1-1h-16c-0.5006258 0-1 0.498274-1 1z"/>
 <path style="fill:#fffefe;opacity:0.2" d="m3 8v1c0-1.6712293 1.3220595-3 3-3h20c1.670861 0 3 1.3220595 3 3v-1c0-1.6708606-1.343299-3-3-3h-20c-1.6779405 0-3 1.3115164-3 3z"/>
 <path style="fill:#fffefe;opacity:0.1" d="m10 23c0-0.555695 0.443269-1 1-1h1c0.556731 0 1 0.439817 1 1v1c0-0.556212-0.437745-1-1-1h-1c-0.55138 0-1 0.436709-1 1z"/>
 <circle style="opacity:0.2" cx="25.5" cy="8.5" r="1.5"/>
</svg>
